X:1
T:Title
%%score ( 1 2 ) ( 3 4 )
L:1/8
M:3/4
K:Ab
V:1 treble nm="Grand Piano, Piano"
V:2 treble 
V:3 bass nm="Grand Piano, Piano"
V:4 bass 
V:1
 z2 z2[Q:1/4=100] [CE]2 | [CA]4 [DF]2 | [CE]4 [EA][FB] | [Ec]4 [DB]2 | [CA]4 [Ec]2 | [Ee]4 cB | %6
 [EA]4 [Ec]2 | [EB]6- | [EB]4 [Ee]2 | [Ec]4 [DB]2 | [CA]4 [_Gc]2 | [Fd]4 [Ec]2 | [EB]4 [Ec]2 | %13
 E2 [DF]2 [EA][FB] | [Ec]4 [DB]2 | [CA]6- |[M:2/4] [CA]4 |] %17
V:2
 x6 | x6 | x6 | x6 | x6 | z2 z2 E2 | x6 | x6 | x6 | x6 | x6 | x6 | x6 | x6 | x6 | x6 |[M:2/4] x4 |] %17
V:3
 z2 z2 [A,,A,]2 | [A,,E,]4 [A,,A,]2 | z2 z2 A,2 | [E,A,]4 [E,G,]2 | [A,,A,]4 A,2 | %5
w: 1.~A|las!~ and~|my~|Sa vior~|bleed,~ and~|
 [A,C]4 [A,,A,][B,,G,] | [C,A,]4 [A,,A,]2 | [E,G,]6- | [E,G,]4 [E,G,]2 | A,4 [E,G,]2 | %10
w: did~ my~ *|So vereign~|die!~|* Would~|he~ de|
 [F,A,]4 [E,A,]2 | [D,A,]4 [A,,A,]2 | [E,G,]4 [A,,A,]2 | A,4 A,2 | [E,A,]4 [E,G,]2 | [A,,A,]6- | %16
w: vote~ that~|sa cred~|head~ for~|sin ners~|such~ as~|I?~|
[M:2/4] [A,,A,]4 |] %17
w: |
V:4
 x6 | x6 | [A,,A,]4 C,D, | x6 | x6 | x6 | x6 | x6 | x6 | x6 | x6 | x6 | x6 | C,2 D,2 C,D, | x6 | %15
 x6 |[M:2/4] x4 |] %17

